svg/misc/search.svg

<?xml version="1.0" encoding="UTF-8"?>
<svg xmlns="http://www.w3.org/2000/svg" xmlns:xlink="http://www.w3.org/1999/xlink" width="24" height="24" viewBox="0 0 24 24" version="1.1">
<defs>
<clipPath id="clip1">
  <path d="M 0 0 L 23.945312 0 L 23.945312 24 L 0 24 Z M 0 0 "/>
</clipPath>
</defs>
<g id="surface1">
<g clip-path="url(#clip1)" clip-rule="nonzero">
<path style=" stroke:none;fill-rule:nonzero;fill:rgb(0%,0%,0%);fill-opacity:1;" d="M 23.566406 22.214844 C 22.40625 21.054688 21.246094 19.894531 20.089844 18.734375 L 17.503906 16.144531 C 17.453125 16.09375 17.394531 16.050781 17.335938 16.011719 C 18.988281 13.996094 19.765625 11.402344 19.496094 8.8125 C 19.261719 6.179688 17.941406 3.761719 15.855469 2.144531 C 13.996094 0.648438 11.648438 -0.109375 9.265625 0.015625 C 6.875 0.152344 4.621094 1.152344 2.914062 2.832031 C -0.574219 6.273438 -0.980469 11.761719 1.960938 15.679688 C 3.386719 17.621094 5.496094 18.949219 7.859375 19.402344 C 10.730469 19.988281 13.710938 19.246094 15.972656 17.382812 C 16.007812 17.4375 16.046875 17.484375 16.089844 17.53125 C 18.097656 19.539062 20.105469 21.550781 22.109375 23.558594 L 22.15625 23.605469 C 22.214844 23.667969 22.273438 23.722656 22.335938 23.777344 C 22.511719 23.921875 22.734375 24 22.960938 24 C 23.058594 24 23.15625 23.984375 23.25 23.957031 C 23.566406 23.855469 23.808594 23.601562 23.902344 23.285156 C 24.011719 22.890625 23.878906 22.46875 23.5625 22.210938 M 17.574219 9.808594 C 17.570312 14.113281 14.082031 17.605469 9.777344 17.617188 L 9.761719 17.617188 C 6.601562 17.605469 3.761719 15.695312 2.558594 12.769531 C 1.359375 9.847656 2.039062 6.488281 4.28125 4.261719 C 5.734375 2.800781 7.714844 1.984375 9.773438 1.988281 L 9.800781 1.988281 C 14.105469 2.011719 17.578125 5.507812 17.578125 9.808594 "/>
</g>
</g>
</svg>

<?xml version="1.0" encoding="UTF-8"?>
<svg xmlns="http://www.w3.org/2000/svg" xmlns:xlink="http://www.w3.org/1999/xlink" width="24" height="24"
     viewBox="0 0 24 24" version="1.1">
    <defs>
        <style>
            .cls-1 {
            fill: currentColor;
            }
        </style>
    </defs>
    <path class="cls-1" d="m23.57 22.21-3.48-3.48-2.59-2.59a1.1 1.1 0 0 0-.16-.13 9.76 9.76 0 0 0 2.16-7.2 9.5 9.5 0 0 0-3.64-6.67 9.7 9.7 0 0 0-12.95.7 9.79 9.79 0 0 0 13.06 14.54l.12.15 6.02 6.03.05.05.18.17a.99.99 0 0 0 .91.18 1 1 0 0 0 .31-1.75m-5.99-12.4a7.8 7.8 0 0 1-7.8 7.8A7.82 7.82 0 0 1 9.76 2h.03a7.82 7.82 0 0 1 7.78 7.82"/>
</svg>
